assets/illustrations/keyboard_arrow_down.svg

<svg width="34" height="21" viewBox="0 0 34 21" fill="none" xmlns="http://www.w3.org/2000/svg">
<path id="keyboard_arrow_down" d="M16.9999 20.3248C16.5999 20.3248 16.2249 20.2623 15.8749 20.1373C15.5249 20.0123 15.1999 19.7998 14.8999 19.4998L1.0999 5.6998C0.549902 5.1498 0.274902 4.4498 0.274902 3.5998C0.274902 2.7498 0.549902 2.0498 1.0999 1.4998C1.6499 0.949805 2.3499 0.674805 3.1999 0.674805C4.0499 0.674805 4.7499 0.949805 5.2999 1.4998L16.9999 13.1998L28.6999 1.4998C29.2499 0.949805 29.9499 0.674805 30.7999 0.674805C31.6499 0.674805 32.3499 0.949805 32.8999 1.4998C33.4499 2.0498 33.7249 2.7498 33.7249 3.5998C33.7249 4.4498 33.4499 5.1498 32.8999 5.6998L19.0999 19.4998C18.7999 19.7998 18.4749 20.0123 18.1249 20.1373C17.7749 20.2623 17.3999 20.3248 16.9999 20.3248Z" fill="#F2EFDE"/>
</svg>

<svg width="34" height="21" fill="none" xmlns="http://www.w3.org/2000/svg"><path d="M17 20.325c-.4 0-.775-.063-1.125-.188a2.632 2.632 0 0 1-.975-.637L1.1 5.7C.55 5.15.275 4.45.275 3.6c0-.85.275-1.55.825-2.1C1.65.95 2.35.675 3.2.675c.85 0 1.55.275 2.1.825L17 13.2 28.7 1.5c.55-.55 1.25-.825 2.1-.825.85 0 1.55.275 2.1.825.55.55.825 1.25.825 2.1 0 .85-.275 1.55-.825 2.1L19.1 19.5c-.3.3-.625.512-.975.637a3.32 3.32 0 0 1-1.125.188Z" fill="#F2EFDE"/></svg>
